pro/src/icons/stroke-no-booking.svg

<svg width="48" height="48" viewBox="0 0 48 48" fill="none" xmlns="http://www.w3.org/2000/svg">
    <g id="icon">
        <path fill-rule="evenodd" clip-rule="evenodd" d="M 15.0553 35.6994 C 13.9565 36.3315 12.3763 35.9028 11.5798 34.5276 L 9.8879 31.6056 C 9.7243 31.323 9.7662 30.9519 10.0092 30.6993 L 10.0129 30.6954 C 11.5569 29.0667 11.8058 26.4639 10.5728 24.3346 C 9.3398 22.2052 6.9546 21.1187 4.7681 21.6377 L 4.7629 21.6389 C 4.4197 21.7229 4.0814 21.5777 3.9151 21.2905 L 2.2231 18.3685 C 1.4267 16.9931 1.8446 15.414 2.9433 14.7815 L 24.9711 2.1008 C 26.07 1.4684 27.6504 1.897 28.4469 3.2725 L 30.1389 6.1945 C 30.3024 6.4771 30.2604 6.848 30.0174 7.1008 L 30.0138 7.1046 C 28.47 8.7332 28.221 11.3361 29.454 13.4654 C 30.6861 15.5935 33.0645 16.6857 35.2596 16.1621 L 35.2638 16.1611 C 35.607 16.0771 35.9454 16.2223 36.1116 16.5095 L 37.2186 18.4213 C 33.24 19.1001 30.2133 22.5477 30.2133 26.7 C 30.2133 31.3398 33.9927 35.1 38.6565 35.1 C 43.3206 35.1 47.1 31.3398 47.1 26.7 C 47.1 25.2526 46.7301 23.8877 46.0785 22.6954 C 45.9015 22.3718 45.4947 22.2521 45.1692 22.428 C 44.844 22.6039 44.7237 23.0088 44.9004 23.3324 C 45.4482 24.3347 45.7593 25.4813 45.7593 26.7 C 45.7593 30.6033 42.5802 33.7662 38.6565 33.7662 C 34.7331 33.7662 31.554 30.6033 31.554 26.7 C 31.554 22.7967 34.7331 19.6338 38.6565 19.6338 C 39.8655 19.6338 41.0043 19.9335 41.9964 20.4639 C 42.3225 20.6383 42.729 20.5166 42.9042 20.1922 C 43.0794 19.8677 42.957 19.4634 42.6309 19.289 C 41.5179 18.6938 40.2528 18.3437 38.9139 18.3038 L 38.2689 17.2157 L 37.4229 15.7547 C 36.9084 14.866 35.8782 14.4574 34.9053 14.6944 C 33.4293 15.0455 31.6974 14.3209 30.765 12.7106 C 29.8335 11.1016 30.0747 9.2394 31.1127 8.1431 C 31.806 7.4199 31.9596 6.3197 31.4499 5.4397 L 29.7582 2.5177 C 28.6167 0.5464 26.1573 -0.3252 24.2142 0.7935 L 2.1863 13.4741 C 0.243 14.5928 -0.2295 17.152 0.912 19.1234 L 2.6039 22.0453 C 3.1183 22.9338 4.148 23.3424 5.1207 23.1058 C 6.5919 22.7576 8.33 23.4804 9.2616 25.0894 C 10.1932 26.6982 9.952 28.5603 8.9142 29.6568 C 8.2206 30.3798 8.0671 31.4802 8.5767 32.3604 L 10.2687 35.2824 C 11.4101 37.2537 13.8693 38.1252 15.8125 37.0065 L 27.4362 30.2979 C 27.798 30.0891 27.9216 29.6274 27.7122 29.2665 C 27.5031 28.9056 27.0399 28.7823 26.6781 28.9911 L 15.0553 35.6994 Z" fill="currentColor"/>
        <path d="M 26.982 23.5976 C 26.6199 23.806 26.157 23.6823 25.9479 23.3213 L 19.8728 12.8298 C 19.6637 12.4688 19.7878 12.0071 20.1499 11.7987 C 20.5119 11.5903 20.9749 11.714 21.184 12.075 L 27.2589 22.5665 C 27.468 22.9275 27.3441 23.3891 26.982 23.5976 Z" fill="currentColor"/>
        <path d="M 36.5223 23.501 C 36.2238 23.2038 35.7399 23.2033 35.4411 23.5 C 35.1423 23.7967 35.1417 24.2782 35.4402 24.5755 L 37.5738 26.7024 L 35.4537 28.8258 C 35.1561 29.124 35.1576 29.6055 35.4573 29.9013 C 35.7567 30.1974 36.2409 30.1956 36.5382 29.8977 L 38.6565 27.7761 L 40.7931 29.8881 C 41.0928 30.1839 41.5767 30.1824 41.8743 29.8845 C 42.1719 29.5866 42.1704 29.1051 41.8707 28.809 L 39.735 26.6979 L 41.8587 24.59 C 42.1575 24.2933 42.1581 23.8118 41.8599 23.5145 C 41.5617 23.2172 41.0775 23.2166 40.7787 23.5132 L 38.652 25.6242 L 36.5223 23.501 Z" fill="currentColor"/>
    </g>
</svg>

<svg xmlns="http://www.w3.org/2000/svg" width="48" height="48" fill="none"><g id="icon" fill="currentColor"><path fill-rule="evenodd" d="M15.055 35.7c-1.098.631-2.679.203-3.475-1.172l-1.692-2.922a.76.76 0 0 1 .121-.907l.004-.004c1.544-1.628 1.793-4.231.56-6.36s-3.618-3.216-5.805-2.697h-.005a.76.76 0 0 1-.848-.348L2.223 18.37c-.796-1.376-.378-2.955.72-3.588l22.028-12.68c1.099-.633 2.68-.204 3.476 1.172l1.692 2.921a.76.76 0 0 1-.122.907l-.003.004c-1.544 1.628-1.793 4.231-.56 6.36s3.61 3.22 5.806 2.697h.004a.76.76 0 0 1 .848.348l1.107 1.911c-3.979.68-7.006 4.127-7.006 8.279 0 4.64 3.78 8.4 8.444 8.4s8.443-3.76 8.443-8.4c0-1.447-.37-2.812-1.022-4.005a.67.67 0 0 0-.909-.267.665.665 0 0 0-.269.904 7 7 0 0 1 .86 3.368c0 3.903-3.18 7.066-7.103 7.066-3.924 0-7.103-3.163-7.103-7.066s3.18-7.066 7.103-7.066c1.209 0 2.347.3 3.34.83a.67.67 0 0 0 .907-.272.665.665 0 0 0-.273-.903 8.4 8.4 0 0 0-3.717-.985l-.645-1.088-.846-1.461a2.275 2.275 0 0 0-2.518-1.06c-1.476.35-3.208-.374-4.14-1.984s-.69-3.472.348-4.568a2.27 2.27 0 0 0 .337-2.703l-1.692-2.922C28.617.546 26.158-.325 24.214.794L2.186 13.474C.243 14.593-.229 17.152.912 19.124l1.692 2.921a2.274 2.274 0 0 0 2.517 1.06c1.47-.347 3.209.375 4.14 1.984.932 1.61.691 3.471-.347 4.568a2.27 2.27 0 0 0-.337 2.703l1.692 2.922c1.141 1.972 3.6 2.843 5.544 1.725l11.623-6.71a.754.754 0 0 0 .276-1.03.76.76 0 0 0-1.034-.276z" clip-rule="evenodd"/><path d="M26.982 23.598a.76.76 0 0 1-1.034-.277L19.873 12.83a.754.754 0 0 1 .277-1.031.76.76 0 0 1 1.034.276l6.075 10.492a.754.754 0 0 1-.277 1.03M36.522 23.501a.767.767 0 0 0-1.08-.001.76.76 0 0 0-.002 1.076l2.134 2.126-2.12 2.124a.76.76 0 0 0 .003 1.075c.3.296.784.295 1.081-.003l2.119-2.122 2.136 2.112c.3.296.784.294 1.081-.004a.76.76 0 0 0-.003-1.075l-2.136-2.111 2.124-2.108a.76.76 0 0 0 0-1.075.767.767 0 0 0-1.08-.002l-2.127 2.111z"/></g></svg>
